X: 6
T: I Buried My Wife And Danced On Her Grave
R: jig
M: 6/8
L: 1/8
K: Gmaj
|:dge fdc|B2B cAF|GGG ABA|GFG ABc|
dge fdc|BAB cAF|GGG ABA|GAF GBc:|
|:d2B cBA|BdB cAF|GFG ABA|GFG ABc|
dcB cBA|B/c/dB cAF|GGG ABA|GAF GBc:|

